X:1973
T:First month of Summer, The
O:england
M:4/4
L:1/8
K:A
AFDF E2CE|A,ECE d/2c/2B cB|A~F3 E~A,3|1CEAB c2 cB:|2CEAB cABG||
A~c3 ecfc|ecAc fe f/2g/2a|e~c3 fcec|d/2c/2B BA Bcdf|
e~c3 ecfc|ecAc ~f3g|agfe fedc|d/2c/2B BA B2cB|
